img/screens/empowering/06.svg

<svg width="140" height="90" viewBox="0 0 140 90" fill="none" xmlns="http://www.w3.org/2000/svg">
<mask id="mask0_10_345" style="mask-type:alpha" maskUnits="userSpaceOnUse" x="0" y="0" width="140" height="90">
<rect width="140" height="90" fill="#D9D9D9"/>
</mask>
<g mask="url(#mask0_10_345)">
<path fill-rule="evenodd" clip-rule="evenodd" d="M47.5439 5.29431C59.9264 3.0783 72.9146 2.48344 85.8092 5.1269C98.4916 7.72685 110.73 12.5087 119.004 19.944C126.944 27.0791 127.186 36.0949 129.807 44.6641C132.683 54.0657 141.919 64.6866 135.035 72.3465C128.133 80.0269 110.975 78.1621 97.953 80.1095C87.223 81.7141 77.0168 83.4066 65.7706 82.7048C52.1378 81.8541 37.0853 82.21 26.3805 75.6432C15.2568 68.8195 12.2316 58.078 9.62937 48.2657C6.91568 38.033 3.84487 26.8342 11.2197 18.4757C18.5174 10.2048 33.774 7.75864 47.5439 5.29431Z" fill="url(#paint0_linear_10_345)"/>
<path fill-rule="evenodd" clip-rule="evenodd" d="M47.5439 9.06189C59.9264 6.84588 72.9146 6.25101 85.8092 8.89447C98.4916 11.4944 110.73 16.2763 119.004 23.7116C126.944 30.8466 127.186 39.8625 129.807 48.4317C132.683 57.8332 141.919 68.4541 135.035 76.1141C128.133 83.7945 110.975 81.9297 97.953 83.8771C87.223 85.4817 77.0168 87.1742 65.7706 86.4724C52.1378 85.6217 37.0853 85.9775 26.3805 79.4108C15.2568 72.5871 12.2316 61.8455 9.62937 52.0332C6.91568 41.8006 3.84487 30.6017 11.2197 22.2433C18.5174 13.9723 33.774 11.5262 47.5439 9.06189Z" fill="url(#paint1_linear_10_345)"/>
</g>
<path d="M67.0211 72.3141C66.9518 72.3155 66.8832 72.2988 66.8224 72.2654C66.7615 72.2321 66.7105 72.1834 66.6743 72.1242C62.6945 65.8737 57.4267 61.6132 52.7781 57.8481C46.1148 52.4481 40.3516 47.783 40.3516 39.229C40.3553 35.9285 41.5644 32.743 43.7514 30.2712C45.9385 27.7994 48.9531 26.2114 52.2285 25.8058C55.504 25.4002 58.8148 26.2048 61.5388 28.0684C64.2628 29.932 66.2124 32.7264 67.0211 35.9262C67.8299 32.7264 69.7794 29.932 72.5034 28.0684C75.2274 26.2048 78.5382 25.4002 81.8137 25.8058C85.0892 26.2114 88.1037 27.7994 90.2908 30.2712C92.4779 32.743 93.6869 35.9285 93.6907 39.229C93.6907 47.783 87.9109 52.4399 81.2642 57.8481C76.6156 61.6132 71.356 65.8737 67.3679 72.1242C67.3318 72.1834 67.2807 72.2321 67.2199 72.2654C67.159 72.2988 67.0905 72.3155 67.0211 72.3141ZM53.8597 26.5217C50.4895 26.5239 47.2577 27.8631 44.8738 30.2455C42.4899 32.6278 41.1486 35.8587 41.1442 39.229C41.1442 47.395 46.7589 51.9445 53.2652 57.2123C57.8313 60.9031 62.9835 65.0728 66.9881 71.1416C71.0009 65.0728 76.1532 60.9031 80.711 57.2123C87.2173 51.9445 92.832 47.395 92.832 39.229C92.832 35.8566 91.4923 32.6223 89.1077 30.2377C86.7231 27.8531 83.4888 26.5134 80.1165 26.5134C76.7441 26.5134 73.5098 27.8531 71.1252 30.2377C68.7406 32.6223 67.4009 35.8566 67.4009 39.229C67.4009 39.3384 67.3574 39.4435 67.28 39.5209C67.2026 39.5983 67.0976 39.6418 66.9881 39.6418C66.8786 39.6418 66.7736 39.5983 66.6962 39.5209C66.6188 39.4435 66.5753 39.3384 66.5753 39.229C66.5709 35.8587 65.2296 32.6278 62.8456 30.2455C60.4617 27.8631 57.23 26.5239 53.8597 26.5217Z" fill="#2E2E2E"/>
<path d="M66.5011 64.7922C66.4129 64.7918 66.3272 64.7625 66.2571 64.7089C66.1871 64.6552 66.1365 64.5801 66.1131 64.495L59.3425 42.0859L55.4122 49.2611C55.3766 49.3263 55.324 49.3806 55.2601 49.4184C55.1961 49.4562 55.1232 49.476 55.0489 49.4758H48.6003C48.4908 49.4758 48.3858 49.4323 48.3084 49.3549C48.231 49.2775 48.1875 49.1725 48.1875 49.063V45.9832C48.1875 45.8737 48.231 45.7687 48.3084 45.6913C48.3858 45.6138 48.4908 45.5703 48.6003 45.5703H52.9765L59.9204 32.9126C59.9583 32.8401 60.0172 32.7808 60.0894 32.7425C60.1617 32.7042 60.2438 32.6886 60.325 32.6979C60.4074 32.709 60.4849 32.7438 60.5479 32.798C60.6109 32.8522 60.6568 32.9236 60.6801 33.0034L66.4021 54.0418L71.6864 39.3612C71.7118 39.284 71.7602 39.2165 71.8252 39.1678C71.8902 39.119 71.9686 39.0914 72.0497 39.0887C72.1314 39.0826 72.2131 39.1014 72.2838 39.1427C72.3546 39.184 72.4112 39.2458 72.4461 39.3199L75.7983 46.2969H81.413C81.7953 46.0701 82.2317 45.9503 82.6763 45.9501C83.0843 45.9392 83.4888 46.0292 83.8536 46.2122C84.2185 46.3952 84.5325 46.6656 84.7676 46.9992C85.0028 47.3328 85.1519 47.7194 85.2016 48.1246C85.2513 48.5297 85.2001 48.9409 85.0526 49.3215C84.9051 49.7021 84.6658 50.0403 84.356 50.3062C84.0462 50.572 83.6756 50.7571 83.277 50.8451C82.8784 50.9331 82.4642 50.9212 82.0713 50.8105C81.6784 50.6999 81.3189 50.4938 81.0249 50.2107H73.5938C73.5153 50.2111 73.4384 50.1887 73.3724 50.1462C73.3064 50.1037 73.2542 50.0429 73.2222 49.9712L72.5451 48.5676L66.881 64.5198C66.8526 64.5982 66.8011 64.6663 66.7333 64.7149C66.6655 64.7636 66.5846 64.7905 66.5011 64.7922ZM59.4416 40.6575H59.4828C59.5636 40.6663 59.6401 40.6983 59.7031 40.7496C59.7661 40.8008 59.8129 40.8692 59.8379 40.9465L66.5342 63.0996L72.0993 47.4116C72.1276 47.334 72.1778 47.2663 72.2437 47.2165C72.3096 47.1667 72.3885 47.137 72.4708 47.1309C72.5535 47.1254 72.6358 47.1455 72.7066 47.1883C72.7775 47.2311 72.8335 47.2947 72.8672 47.3703L73.858 49.4345H81.19C81.2455 49.4332 81.3006 49.4436 81.3518 49.4649C81.403 49.4862 81.4492 49.5181 81.4873 49.5584C81.7029 49.7906 81.9808 49.9559 82.2877 50.0346C82.5947 50.1132 82.9179 50.1019 83.2186 50.0019C83.5193 49.9019 83.7849 49.7175 83.9836 49.4707C84.1824 49.2239 84.306 48.9251 84.3396 48.61C84.3732 48.2949 84.3154 47.9768 84.1732 47.6936C84.0309 47.4104 83.8102 47.1742 83.5374 47.013C83.2645 46.8518 82.9511 46.7726 82.6344 46.7847C82.3177 46.7968 82.0112 46.8998 81.7515 47.0813C81.6836 47.1278 81.6025 47.151 81.5203 47.1474H75.5341C75.4567 47.1475 75.3809 47.1259 75.3152 47.0851C75.2495 47.0442 75.1966 46.9857 75.1626 46.9162L72.1158 40.5915L66.7241 55.5198C66.7009 55.6064 66.6471 55.6817 66.5728 55.7317C66.4984 55.7818 66.4085 55.8033 66.3195 55.7923C66.2319 55.7929 66.1468 55.7638 66.0778 55.7098C66.0089 55.6559 65.9602 55.5802 65.9397 55.495L60.1599 34.1676L53.5544 46.1483C53.5181 46.2129 53.4654 46.2667 53.4016 46.3044C53.3378 46.3421 53.2652 46.3623 53.1911 46.363H48.9801V48.6171H54.7599L59.037 40.7979C59.0857 40.7404 59.1489 40.6971 59.2201 40.6724C59.2912 40.6477 59.3677 40.6426 59.4416 40.6575Z" fill="#2E2E2E"/>
<defs>
<linearGradient id="paint0_linear_10_345" x1="61.4623" y1="0.342922" x2="63.3515" y2="87.2658" gradientUnits="userSpaceOnUse">
<stop stop-color="#6D7582"/>
<stop offset="1" stop-color="#F4ECFF"/>
</linearGradient>
<linearGradient id="paint1_linear_10_345" x1="61.4623" y1="4.1105" x2="63.3515" y2="91.0334" gradientUnits="userSpaceOnUse">
<stop stop-color="#E8F0FE"/>
<stop offset="1" stop-color="#F4ECFF"/>
</linearGradient>
</defs>
</svg>

<svg width="140" height="90" fill="none" xmlns="http://www.w3.org/2000/svg"><mask id="a" style="mask-type:alpha" maskUnits="userSpaceOnUse" x="0" y="0" width="140" height="90"><path fill="#D9D9D9" d="M0 0h140v90H0z"/></mask><g mask="url(#a)" fill-rule="evenodd" clip-rule="evenodd"><path d="M47.544 5.294c12.382-2.216 25.37-2.81 38.265-.167 12.683 2.6 24.921 7.382 33.195 14.817 7.94 7.135 8.182 16.15 10.803 24.72 2.876 9.402 12.112 20.023 5.228 27.683-6.902 7.68-24.06 5.815-37.082 7.763-10.73 1.604-20.936 3.297-32.182 2.595-13.633-.85-28.686-.495-39.39-7.062C15.256 68.82 12.23 58.078 9.628 48.266c-2.713-10.233-5.784-21.432 1.59-29.79 7.298-8.271 22.555-10.717 36.325-13.182Z" fill="url(#b)"/><path d="M47.544 9.062c12.382-2.216 25.37-2.811 38.265-.168 12.683 2.6 24.921 7.382 33.195 14.818 7.94 7.135 8.182 16.15 10.803 24.72 2.876 9.401 12.112 20.022 5.228 27.682-6.902 7.68-24.06 5.816-37.082 7.763-10.73 1.605-20.936 3.297-32.182 2.595-13.633-.85-28.686-.494-39.39-7.061-11.124-6.824-14.15-17.566-16.752-27.378-2.713-10.232-5.784-21.431 1.59-29.79 7.298-8.27 22.555-10.717 36.325-13.181Z" fill="url(#c)"/></g><path d="M67.021 72.314a.396.396 0 0 1-.347-.19c-3.98-6.25-9.247-10.51-13.896-14.276-6.663-5.4-12.426-10.065-12.426-18.619a13.541 13.541 0 0 1 26.67-3.303A13.541 13.541 0 0 1 93.69 39.23c0 8.554-5.78 13.21-12.427 18.62-4.648 3.764-9.908 8.025-13.896 14.275a.396.396 0 0 1-.347.19ZM53.86 26.522a12.724 12.724 0 0 0-12.716 12.707c0 8.166 5.615 12.715 12.121 17.983 4.566 3.691 9.718 7.86 13.723 13.93 4.013-6.07 9.165-10.239 13.723-13.93 6.506-5.268 12.121-9.817 12.121-17.983a12.716 12.716 0 0 0-25.431 0 .413.413 0 0 1-.826 0A12.723 12.723 0 0 0 53.86 26.522Z" fill="#2E2E2E"/><path d="M66.501 64.792a.405.405 0 0 1-.388-.297l-6.77-22.41-3.93 7.176a.413.413 0 0 1-.364.215H48.6a.413.413 0 0 1-.413-.413v-3.08a.413.413 0 0 1 .413-.413h4.377l6.943-12.657a.405.405 0 0 1 .628-.115.43.43 0 0 1 .132.205l5.722 21.039 5.284-14.68a.396.396 0 0 1 .364-.273.405.405 0 0 1 .396.23l3.352 6.978h5.615a2.478 2.478 0 0 1 1.263-.347 2.478 2.478 0 1 1-1.651 4.26h-7.431a.405.405 0 0 1-.372-.239l-.677-1.403-5.664 15.952a.413.413 0 0 1-.38.272Zm-7.06-24.135h.042a.421.421 0 0 1 .355.29L66.534 63.1 72.1 47.412a.429.429 0 0 1 .372-.281.404.404 0 0 1 .396.24l.991 2.063h7.332a.397.397 0 0 1 .297.124 1.652 1.652 0 1 0 .264-2.477.38.38 0 0 1-.23.066h-5.987a.414.414 0 0 1-.371-.23l-3.047-6.325-5.392 14.928a.371.371 0 0 1-.404.272.388.388 0 0 1-.38-.297l-5.78-21.327-6.606 11.98a.42.42 0 0 1-.363.215h-4.21v2.254h5.779l4.277-7.82a.42.42 0 0 1 .405-.14Z" fill="#2E2E2E"/><defs><linearGradient id="b" x1="61.462" y1=".343" x2="63.352" y2="87.266" gradientUnits="userSpaceOnUse"><stop stop-color="#6D7582"/><stop offset="1" stop-color="#F4ECFF"/></linearGradient><linearGradient id="c" x1="61.462" y1="4.111" x2="63.352" y2="91.033" gradientUnits="userSpaceOnUse"><stop stop-color="#E8F0FE"/><stop offset="1" stop-color="#F4ECFF"/></linearGradient></defs></svg>
